X:975
T:Brian Maguire
R:Other
O:Ireland
C:Turlough Carolan
P:APB Brendan Mulvahill
B:The Complete Works of O'Carolan
D:Mulvahill/Long The Morning Dew
S:Mulvahill/Long The Morning Dew
Z:Transcription, chords:Mike Long
M:C|
L:1/8
K:F
"F"C2FE F2DE|"Dm"F2~ED "Am"C2A,2|\
"Bb"B2BG "Am"A/B/c cA|"Dm"F2A2 "C"c2f2|\
"F"fefg fefg|"Dm"{f}ga g/f/e d2da|
"Dm"d2da "C"g2gf|"C"ecde "F"fcde|"F"fcde fedc|\
"Gm"B2AG "Dm"A2DA|"C"G2CG "F"F2~F2:|
|:"F"A/B/c/A/ FA FAcA|"Bb/Gm"~B2 Bd B2 Bd|"Am"cBAG ABc2|\
"Dm"F2FA F2FA|"Gm"GAGF GAB2|"Am"ABAG ABc2|
"Gm"BAGF "C"EFGA|"Dm"F2E>D D4|"C"cdef fgga|\
"Dm"abbc' "Am"~a2gf|"Gm"gafa "Dm"~f2ed|"C"c2e2 "F"f4:|
